picto/emergency-framed.svg

<svg class="color-immutable" width="30" height="30" viewBox="0 0 30 30" fill="none" xmlns="http://www.w3.org/2000/svg"><path d="M30 0H0V30H30V0Z" fill="#237F52"/><path d="M25.5 3C26.325 3 27 3.675 27 4.5V25.5C27 26.325 26.325 27 25.5 27H4.5C3.675 27 3 26.325 3 25.5V4.5C3 3.675 3.675 3 4.5 3H25.5ZM25.5 2.625H4.5C3.46613 2.625 2.625 3.46613 2.625 4.5V25.5C2.625 26.5339 3.46613 27.375 4.5 27.375H25.5C26.5339 27.375 27.375 26.5339 27.375 25.5V4.5C27.375 3.46613 26.5339 2.625 25.5 2.625Z" fill="white"/><path d="M11.421 6.0195L10.189 6.3975L10.1992 10.7249L11.6598 10.2771C11.8444 10.219 11.9708 10.0508 11.9732 9.85605L11.9929 6.447C11.9944 6.40065 11.9884 6.35827 11.9749 6.31582C11.9026 6.08002 11.6551 5.94803 11.421 6.0195Z" fill="white"/><path d="M14.9298 19.3529C14.8191 19.195 14.6195 19.1243 14.4364 19.1809L12.9744 19.628L15.3917 23.216L16.6239 22.8374C16.8579 22.7666 16.9882 22.5168 16.9176 22.2842C16.9048 22.2403 16.8861 22.2009 16.8588 22.1618L14.9298 19.3529Z" fill="white"/><path d="M11.5748 20.2C10.7019 18.8576 10.0199 17.4008 9.55174 15.8712C9.08194 14.3414 8.82964 12.752 8.79979 11.1547L9.68134 10.8836L9.67031 6.55695L8.40844 6.94268C7.78639 7.1352 7.28036 7.58933 7.02266 8.18565C5.84741 10.9072 5.67926 13.9588 6.54979 16.7918C7.42031 19.6258 9.26824 22.0575 11.769 23.6531C12.3149 24.002 12.9907 24.093 13.6113 23.9022L14.873 23.5156L12.4563 19.929L11.5748 20.2Z" fill="white"/><path d="M19.0597 7.57313C19.0597 6.98153 19.2837 6.49688 19.8609 6.49688C20.2524 6.49688 20.6638 6.81173 20.6638 7.57313C20.6638 8.14553 20.403 8.62313 19.8609 8.62313C19.2654 8.62313 19.0597 8.07293 19.0597 7.57313ZM18.4961 7.56908C18.4961 8.43173 19.0031 9.10455 19.8658 9.10455C20.628 9.10455 21.2291 8.52255 21.2291 7.57305C21.2291 6.68655 20.7045 6.00008 19.8609 6.00008C19.094 6.00008 18.4961 6.59408 18.4961 7.56908Z" fill="white"/><path d="M15.7295 8.09295C15.7295 8.3871 15.9432 9.10545 16.9939 9.10545C17.9921 9.10545 18.1931 8.51468 18.1931 8.14553C18.1931 7.65203 17.8487 7.37775 17.4372 7.31085C17.3448 7.29413 17.1008 7.25903 17.0091 7.24463C16.6895 7.19603 16.3928 7.18883 16.3928 6.89865C16.3928 6.6315 16.6416 6.4896 16.9605 6.4896C17.265 6.4896 17.5743 6.60675 17.5959 6.96638H18.1731C18.1563 6.6642 17.9411 6.00728 16.962 6.00728C16.345 6.00728 15.8379 6.32775 15.8379 6.94883C15.8379 7.60335 16.4445 7.7325 16.8616 7.78515C16.9533 7.79633 17.1542 7.82505 17.2076 7.83375C17.4587 7.87365 17.619 7.99245 17.619 8.20448C17.619 8.48985 17.2961 8.62148 17.0154 8.62148C16.6623 8.62148 16.3163 8.47718 16.3163 8.09288H15.7295V8.09295Z" fill="white"/><path d="M21.5398 8.09295C21.5398 8.3871 21.7518 9.10545 22.8026 9.10545C23.8 9.10545 24.0001 8.51468 24.0001 8.14553C24.0001 7.65203 23.6572 7.37775 23.2459 7.31085C23.1534 7.29413 22.9094 7.25903 22.8176 7.24463C22.4981 7.19603 22.2014 7.18883 22.2014 6.89865C22.2014 6.6315 22.451 6.4896 22.769 6.4896C23.0736 6.4896 23.383 6.60675 23.4045 6.96638H23.9809C23.9633 6.6642 23.7497 6.00728 22.7707 6.00728C22.1537 6.00728 21.6465 6.32775 21.6465 6.94883C21.6465 7.60335 22.254 7.7325 22.6701 7.78515C22.761 7.79633 22.9627 7.82505 23.0162 7.83375C23.2673 7.87365 23.4269 7.99245 23.4269 8.20448C23.4269 8.48985 23.1055 8.62148 22.8241 8.62148C22.4732 8.62148 22.1249 8.47718 22.1249 8.09288H21.5398V8.09295Z" fill="white"/></svg>

<svg class="color-immutable" width="30" height="30" viewBox="0 0 30 30" fill="none" xmlns="http://www.w3.org/2000/svg"><g clip-path="url(#a)"><path d="M30 0H0v30h30V0Z" fill="#237F52"/><path d="M25.5 3c.825 0 1.5.675 1.5 1.5v21c0 .825-.675 1.5-1.5 1.5h-21c-.825 0-1.5-.675-1.5-1.5v-21C3 3.675 3.675 3 4.5 3h21Zm0-.375h-21A1.877 1.877 0 0 0 2.625 4.5v21c0 1.034.841 1.875 1.875 1.875h21a1.877 1.877 0 0 0 1.875-1.875v-21A1.877 1.877 0 0 0 25.5 2.625Z" fill="#fff"/><path d="m11.421 6.02-1.232.378.01 4.327 1.46-.448a.446.446 0 0 0 .314-.42l.02-3.41a.444.444 0 0 0-.572-.428ZM14.93 19.353a.444.444 0 0 0-.494-.172l-1.462.447 2.418 3.588 1.232-.379a.444.444 0 0 0 .235-.675l-1.93-2.81Z" fill="#fff"/><path d="M11.575 20.2A17.15 17.15 0 0 1 8.8 11.155l.881-.271-.01-4.327-1.263.386a2.226 2.226 0 0 0-1.385 1.243 12.484 12.484 0 0 0 4.746 15.467c.546.349 1.222.44 1.842.25l1.262-.387-2.417-3.587-.881.271ZM19.06 7.573c0-.591.224-1.076.8-1.076.392 0 .804.315.804 1.076 0 .573-.261 1.05-.803 1.05-.596 0-.801-.55-.801-1.05Zm-.564-.004c0 .863.507 1.536 1.37 1.536.762 0 1.363-.582 1.363-1.532 0-.886-.524-1.573-1.368-1.573-.767 0-1.365.594-1.365 1.57ZM15.73 8.093c0 .294.213 1.012 1.264 1.012.998 0 1.2-.59 1.2-.96 0-.493-.345-.767-.757-.834-.092-.017-.336-.052-.428-.066-.32-.049-.616-.056-.616-.346 0-.268.249-.41.567-.41.305 0 .614.118.636.477h.577c-.017-.302-.232-.959-1.211-.959-.617 0-1.124.32-1.124.942 0 .654.607.784 1.024.836.091.011.292.04.346.049.25.04.411.158.411.37 0 .286-.323.417-.604.417-.353 0-.699-.144-.699-.528h-.586ZM21.54 8.093c0 .294.212 1.012 1.263 1.012.997 0 1.197-.59 1.197-.96 0-.493-.343-.767-.754-.834-.093-.017-.337-.052-.428-.066-.32-.049-.617-.056-.617-.346 0-.268.25-.41.568-.41.305 0 .614.118.636.477h.576c-.018-.302-.231-.959-1.21-.959-.617 0-1.125.32-1.125.942 0 .654.608.784 1.024.836.091.011.293.04.346.049.251.04.41.158.41.37 0 .286-.32.417-.602.417-.35 0-.7-.144-.7-.528h-.584Z" fill="#fff"/></g><defs><clipPath id="a"><path fill="#fff" d="M0 0h30v30H0z"/></clipPath></defs></svg>
